X: 12686
T: Father Bernie's
R: hornpipe
M: 4/4
K: Cmajor
|:cd|ecBc ecBc|fcAc fcAc|^fcAc fdef|(3gag ^fg =fdBd|
ecGE ~F2 DC|B,DGB ~c2 BA|GBdg ag^fg|1 ecdB c2:|2 ecGE C2:|

